FINK
CUT[LOBT FROH DEN HERRN]
REG[Europa, Mitteleuropa, Deutschland]
KEY[F0346  08  D 3/4]
MEL[-5_  1_.-7-6-5  -5_-3_
    -5_  -5_.-4-3-2  -3_-1_
    -5_  -6_1_-6_  -5_-3_
    -5_  -6_.-71-6  -5_-3_
    1_  2_.34_  3__
    1_  -7_.12_  1__ //] >>
FCT[Jugend - Lied, Lob - Lied, religioes]
